X: 1
T: The Road To Errogie
R: reel
M: 4/4
L: 1/8
K: Gmaj
Q: 180
"G"DG~G2 AGAB|dG~G2 ABdB|"C"e3g dBG2|"D"A3B AGEG|
"G"DG~G2 AGAB|dG~G2 ABdB|"C"e3g dBG2|"D"AG F/E/D "G"G2 BG:||
"G"dgg2 g2ag|ab2a g3d|"C"e2d "G"g2d"C"e2-|ed"D"gd edBc|
"G"dgg2 g2ag|ab2a g3d|"C"e3g "G"dBGE|"D"AG F/E/D "G"G4|
"G"dgg2 g2ag|ab2a g3d|"C"e2d "G"g2d"C"e2-|ed"D"gd edBc|
"G"DG~G2 AGAB|dG~G2 ABdB|"C"e3g dBG2|"D"AG F/E/D "G"G2 BG||

